assets/1. Faces/Winking face with tongue/Color/winking_face_with_tongue_color.svg

<svg width="100%" height="100%" viewBox="0 0 32 32" fill="none" xmlns="http://www.w3.org/2000/svg">
<path d="M15.9989 29.9978C25.3333 29.9978 29.9978 23.7303 29.9978 15.9989C29.9978 8.26751 25.3333 2 15.9989 2C6.66443 2 2 8.26751 2 15.9989C2 23.7303 6.66443 29.9978 15.9989 29.9978Z" fill="url(#paint0_radial_31_25)"/>
<path d="M15.9989 29.9978C25.3333 29.9978 29.9978 23.7303 29.9978 15.9989C29.9978 8.26751 25.3333 2 15.9989 2C6.66443 2 2 8.26751 2 15.9989C2 23.7303 6.66443 29.9978 15.9989 29.9978Z" fill="url(#paint1_radial_31_25)"/>
<path d="M15.9989 29.9978C25.3333 29.9978 29.9978 23.7303 29.9978 15.9989C29.9978 8.26751 25.3333 2 15.9989 2C6.66443 2 2 8.26751 2 15.9989C2 23.7303 6.66443 29.9978 15.9989 29.9978Z" fill="url(#paint2_radial_31_25)"/>
<path d="M15.9989 29.9978C25.3333 29.9978 29.9978 23.7303 29.9978 15.9989C29.9978 8.26751 25.3333 2 15.9989 2C6.66443 2 2 8.26751 2 15.9989C2 23.7303 6.66443 29.9978 15.9989 29.9978Z" fill="url(#paint3_radial_31_25)" fill-opacity="0.6"/>
<path d="M15.9989 29.9978C25.3333 29.9978 29.9978 23.7303 29.9978 15.9989C29.9978 8.26751 25.3333 2 15.9989 2C6.66443 2 2 8.26751 2 15.9989C2 23.7303 6.66443 29.9978 15.9989 29.9978Z" fill="url(#paint4_radial_31_25)"/>
<path d="M15.9989 29.9978C25.3333 29.9978 29.9978 23.7303 29.9978 15.9989C29.9978 8.26751 25.3333 2 15.9989 2C6.66443 2 2 8.26751 2 15.9989C2 23.7303 6.66443 29.9978 15.9989 29.9978Z" fill="url(#paint5_radial_31_25)"/>
<path d="M15.9989 29.9978C25.3333 29.9978 29.9978 23.7303 29.9978 15.9989C29.9978 8.26751 25.3333 2 15.9989 2C6.66443 2 2 8.26751 2 15.9989C2 23.7303 6.66443 29.9978 15.9989 29.9978Z" fill="url(#paint6_radial_31_25)"/>
<path d="M15.9989 29.9978C25.3333 29.9978 29.9978 23.7303 29.9978 15.9989C29.9978 8.26751 25.3333 2 15.9989 2C6.66443 2 2 8.26751 2 15.9989C2 23.7303 6.66443 29.9978 15.9989 29.9978Z" fill="url(#paint7_radial_31_25)"/>
<path fill-rule="evenodd" clip-rule="evenodd" d="M11.0938 14.1562C12.1901 14.1562 12.5423 14.8535 12.592 15.0536C12.7252 15.5896 13.2676 15.9162 13.8036 15.783C14.3396 15.6498 14.6662 15.1074 14.533 14.5714C14.3084 13.6673 13.2891 12.1562 11.0938 12.1562C8.89839 12.1562 7.87911 13.6673 7.65451 14.5714C7.52135 15.1074 7.84792 15.6498 8.38391 15.783C8.9199 15.9162 9.46235 15.5896 9.59551 15.0536C9.64521 14.8535 9.99746 14.1562 11.0938 14.1562Z" fill="url(#paint8_radial_31_25)"/>
<path d="M18.8062 17.1706C19.6962 16.8406 20.6562 16.6406 21.6662 16.6406C22.6762 16.6406 23.6363 16.8306 24.5163 17.1706C25.3663 16.3906 25.9062 15.2906 25.9062 14.0406C25.9062 11.6906 24.0062 9.79065 21.6562 9.79065C19.3063 9.79065 17.4062 11.6906 17.4062 14.0406C17.4162 15.2906 17.9562 16.4006 18.8062 17.1706Z" fill="white"/>
<path d="M21.2087 16C22.3133 16 23.2087 15.1046 23.2087 14C23.2087 12.8954 22.3133 12 21.2087 12C20.1042 12 19.2087 12.8954 19.2087 14C19.2087 15.1046 20.1042 16 21.2087 16Z" fill="url(#paint9_linear_31_25)"/>
<path fill-rule="evenodd" clip-rule="evenodd" d="M11 8.5C11 8.22386 10.7761 8 10.5 8C9.72575 8 8.7575 8.2843 7.9154 8.83052C7.0671 9.38077 6.30302 10.2264 6.01493 11.3787C5.94795 11.6466 6.11083 11.9181 6.37873 11.9851C6.64663 12.052 6.9181 11.8892 6.98507 11.6213C7.19698 10.7736 7.76623 10.1192 8.4596 9.66948C9.15917 9.2157 9.94092 9 10.5 9C10.7761 9 11 8.77614 11 8.5Z" fill="url(#paint10_linear_31_25)"/>
<path fill-rule="evenodd" clip-rule="evenodd" d="M23.9309 7.98761C24.5238 8.55049 24.8823 9.22774 25.0258 9.65811C25.1131 9.92009 25.3963 10.0617 25.6582 9.97434C25.9202 9.88702 26.0618 9.60386 25.9745 9.34189C25.7846 8.77226 25.3431 7.94951 24.6194 7.26239C23.8871 6.5672 22.8522 6 21.5001 6C21.224 6 21.0001 6.22386 21.0001 6.5C21.0001 6.77614 21.224 7 21.5001 7C22.548 7 23.3465 7.4328 23.9309 7.98761Z" fill="url(#paint11_linear_31_25)"/>
<path d="M15.9988 26C8.99878 26 8.99878 19 8.99878 19H22.9988C22.9988 19 22.9988 26 15.9988 26Z" fill="url(#paint12_radial_31_25)"/>
<path d="M16.0155 29C20.2155 29 20.8855 24.8 21.0155 23.75C21.1155 22.9 20.6655 22.47 20.1755 22.18C19.6855 21.89 18.2155 21.62 16.0155 21.62C13.8155 21.62 12.3555 21.89 11.8555 22.18C11.3555 22.47 10.9055 22.9 11.0155 23.75C11.1455 24.8 11.8155 29 16.0155 29Z" fill="url(#paint13_radial_31_25)"/>
<g opacity="0.5" filter="url(#filter0_f_31_25)">
<path d="M18 26.5C19 26 20 25 20 23.5" stroke="white"/>
</g>
<path d="M22.8588 20.43C22.9488 19.97 22.9988 19.49 22.9988 19C18.3388 19 11.8388 19 8.99878 19C8.99878 19.49 9.04878 19.96 9.13878 20.43H22.8588Z" fill="url(#paint14_linear_31_25)"/>
<defs>
<filter id="filter0_f_31_25" x="16.7764" y="22.5" width="4.72363" height="5.4472" filterUnits="userSpaceOnUse" color-interpolation-filters="sRGB">
<feFlood flood-opacity="0" result="BackgroundImageFix"/>
<feBlend mode="normal" in="SourceGraphic" in2="BackgroundImageFix" result="shape"/>
<feGaussianBlur stdDeviation="0.5" result="effect1_foregroundBlur_31_25"/>
</filter>
<radialGradient id="paint0_radial_31_25" cx="0" cy="0" r="1" gradientUnits="userSpaceOnUse" gradientTransform="translate(25.5 9) rotate(132.839) scale(37.5033)">
<stop stop-color="#FFF478"/>
<stop offset="0.474827" stop-color="#FFB02E"/>
<stop offset="1" stop-color="#F70A8D"/>
</radialGradient>
<radialGradient id="paint1_radial_31_25" cx="0" cy="0" r="1" gradientUnits="userSpaceOnUse" gradientTransform="translate(25.5 9) rotate(131.878) scale(38.9487)">
<stop stop-color="#FFF478"/>
<stop offset="0.474827" stop-color="#FFB02E"/>
<stop offset="1" stop-color="#F70A8D"/>
</radialGradient>
<radialGradient id="paint2_radial_31_25" cx="0" cy="0" r="1" gradientUnits="userSpaceOnUse" gradientTransform="translate(16 12.5) rotate(101.31) scale(17.8466 22.8581)">
<stop offset="0.787821" stop-color="#F59639" stop-opacity="0"/>
<stop offset="0.972509" stop-color="#FF7DCE"/>
</radialGradient>
<radialGradient id="paint3_radial_31_25" cx="0" cy="0" r="1" gradientUnits="userSpaceOnUse" gradientTransform="translate(18 14) rotate(135) scale(41.0122)">
<stop offset="0.314853" stop-opacity="0"/>
<stop offset="1"/>
</radialGradient>
<radialGradient id="paint4_radial_31_25" cx="0" cy="0" r="1" gradientUnits="userSpaceOnUse" gradientTransform="translate(16 17) rotate(77.692) scale(28.1469)">
<stop offset="0.507903" stop-color="#7D6133" stop-opacity="0"/>
<stop offset="1" stop-color="#715B32"/>
</radialGradient>
<radialGradient id="paint5_radial_31_25" cx="0" cy="0" r="1" gradientUnits="userSpaceOnUse" gradientTransform="translate(16.5 16.5) rotate(55.7131) scale(13.3135 9.65032)">
<stop stop-color="#FFB849"/>
<stop offset="1" stop-color="#FFB847" stop-opacity="0"/>
</radialGradient>
<radialGradient id="paint6_radial_31_25" cx="0" cy="0" r="1" gradientUnits="userSpaceOnUse" gradientTransform="translate(20.5 18) rotate(9.86581) scale(11.6726)">
<stop stop-color="#FFA64B"/>
<stop offset="0.900412" stop-color="#FFAE46" stop-opacity="0"/>
</radialGradient>
<radialGradient id="paint7_radial_31_25" cx="0" cy="0" r="1" gradientUnits="userSpaceOnUse" gradientTransform="translate(17.5 15) rotate(43.9708) scale(59.0529)">
<stop offset="0.185425" stop-opacity="0"/>
<stop offset="1" stop-opacity="0.4"/>
</radialGradient>
<radialGradient id="paint8_radial_31_25" cx="0" cy="0" r="1" gradientUnits="userSpaceOnUse" gradientTransform="translate(11.0938 14.8125) rotate(90) scale(3.3125 4.82169)">
<stop offset="0.337213" stop-color="#4D274B"/>
<stop offset="0.628228" stop-color="#514047"/>
<stop offset="1" stop-color="#4E2553"/>
<stop offset="1" stop-color="#4A342F"/>
</radialGradient>
<linearGradient id="paint9_linear_31_25" x1="22.7472" y1="12" x2="21.063" y2="15.2842" gradientUnits="userSpaceOnUse">
<stop stop-color="#553B3E"/>
<stop offset="1" stop-color="#3D2432"/>
</linearGradient>
<linearGradient id="paint10_linear_31_25" x1="10.1667" y1="12.4" x2="10.1667" y2="10.6" gradientUnits="userSpaceOnUse">
<stop offset="0.0299084" stop-color="#524049"/>
<stop offset="1" stop-color="#4A2C42"/>
</linearGradient>
<linearGradient id="paint11_linear_31_25" x1="25.1668" y1="10.4" x2="25.1668" y2="8.6" gradientUnits="userSpaceOnUse">
<stop offset="0.0299084" stop-color="#524049"/>
<stop offset="1" stop-color="#4A2C42"/>
</linearGradient>
<radialGradient id="paint12_radial_31_25" cx="0" cy="0" r="1" gradientUnits="userSpaceOnUse" gradientTransform="translate(15.9988 27.5556) rotate(-90) scale(8.55556 17.1111)">
<stop stop-color="#F70A8D"/>
<stop offset="1" stop-color="#89029C"/>
</radialGradient>
<radialGradient id="paint13_radial_31_25" cx="0" cy="0" r="1" gradientUnits="userSpaceOnUse" gradientTransform="translate(16.5 30) rotate(-93.0128) scale(9.51315 16.5379)">
<stop stop-color="#FF1C4A"/>
<stop offset="0.765733" stop-color="#FF2B8F"/>
<stop offset="0.864496" stop-color="#BB0773"/>
<stop offset="0.886239" stop-color="#9F0762"/>
</radialGradient>
<linearGradient id="paint14_linear_31_25" x1="15.9988" y1="19" x2="15.9988" y2="20.43" gradientUnits="userSpaceOnUse">
<stop stop-color="#ECCDFF"/>
<stop offset="1" stop-color="white"/>
</linearGradient>
</defs>
</svg>

<svg width="100%" height="100%" viewBox="0 0 32 32" xmlns="http://www.w3.org/2000/svg"><path fill="url(#a)" d="M15.999 29.998c9.334 0 13.999-6.268 13.999-14 0-7.73-4.665-13.998-14-13.998C6.665 2 2 8.268 2 15.999s4.664 13.999 13.999 13.999"/><path fill="url(#b)" d="M15.999 29.998c9.334 0 13.999-6.268 13.999-14 0-7.73-4.665-13.998-14-13.998C6.665 2 2 8.268 2 15.999s4.664 13.999 13.999 13.999"/><path fill="url(#c)" d="M15.999 29.998c9.334 0 13.999-6.268 13.999-14 0-7.73-4.665-13.998-14-13.998C6.665 2 2 8.268 2 15.999s4.664 13.999 13.999 13.999"/><path fill="url(#d)" fill-opacity=".6" d="M15.999 29.998c9.334 0 13.999-6.268 13.999-14 0-7.73-4.665-13.998-14-13.998C6.665 2 2 8.268 2 15.999s4.664 13.999 13.999 13.999"/><path fill="url(#e)" d="M15.999 29.998c9.334 0 13.999-6.268 13.999-14 0-7.73-4.665-13.998-14-13.998C6.665 2 2 8.268 2 15.999s4.664 13.999 13.999 13.999"/><path fill="url(#f)" d="M15.999 29.998c9.334 0 13.999-6.268 13.999-14 0-7.73-4.665-13.998-14-13.998C6.665 2 2 8.268 2 15.999s4.664 13.999 13.999 13.999"/><path fill="url(#g)" d="M15.999 29.998c9.334 0 13.999-6.268 13.999-14 0-7.73-4.665-13.998-14-13.998C6.665 2 2 8.268 2 15.999s4.664 13.999 13.999 13.999"/><path fill="url(#h)" d="M15.999 29.998c9.334 0 13.999-6.268 13.999-14 0-7.73-4.665-13.998-14-13.998C6.665 2 2 8.268 2 15.999s4.664 13.999 13.999 13.999"/><path fill="url(#i)" fill-rule="evenodd" d="M11.094 14.156c1.096 0 1.448.697 1.498.898a1 1 0 1 0 1.941-.483c-.225-.904-1.244-2.415-3.44-2.415s-3.214 1.511-3.438 2.415a1 1 0 0 0 1.94.483c.05-.2.402-.898 1.499-.898" clip-rule="evenodd"/><path fill="#fff" d="M18.806 17.17c.89-.33 1.85-.53 2.86-.53s1.97.19 2.85.53a4.22 4.22 0 0 0 1.39-3.13c0-2.35-1.9-4.25-4.25-4.25s-4.25 1.9-4.25 4.25a4.25 4.25 0 0 0 1.4 3.13"/><path fill="url(#j)" d="M21.209 16a2 2 0 1 0 0-4 2 2 0 0 0 0 4"/><path fill="url(#k)" fill-rule="evenodd" d="M11 8.5a.5.5 0 0 0-.5-.5c-.774 0-1.742.284-2.585.83-.848.55-1.612 1.396-1.9 2.549a.5.5 0 0 0 .97.242c.212-.847.781-1.502 1.475-1.952C9.16 9.216 9.94 9 10.5 9a.5.5 0 0 0 .5-.5" clip-rule="evenodd"/><path fill="url(#l)" fill-rule="evenodd" d="M23.93 7.988c.594.562.952 1.24 1.096 1.67a.5.5 0 1 0 .948-.316c-.19-.57-.63-1.392-1.355-2.08C23.887 6.567 22.852 6 21.5 6a.5.5 0 0 0 0 1c1.048 0 1.846.433 2.43.988" clip-rule="evenodd"/><path fill="url(#m)" d="M15.999 26c-7 0-7-7-7-7h14s0 7-7 7"/><path fill="url(#n)" d="M16.016 29c4.2 0 4.87-4.2 5-5.25.1-.85-.35-1.28-.84-1.57s-1.96-.56-4.16-.56-3.66.27-4.16.56-.95.72-.84 1.57c.13 1.05.8 5.25 5 5.25"/><g filter="url(#o)" opacity=".5"><path stroke="#fff" d="M18 26.5c1-.5 2-1.5 2-3"/></g><path fill="url(#p)" d="M22.859 20.43c.09-.46.14-.94.14-1.43h-14c0 .49.05.96.14 1.43z"/><defs><radialGradient id="a" cx="0" cy="0" r="1" gradientTransform="rotate(132.839 10.786 10.065)scale(37.5033)" gradientUnits="userSpaceOnUse"><stop stop-color="#FFF478"/><stop offset=".475" stop-color="#FFB02E"/><stop offset="1" stop-color="#F70A8D"/></radialGradient><radialGradient id="b" cx="0" cy="0" r="1" gradientTransform="rotate(131.878 10.74 10.193)scale(38.9487)" gradientUnits="userSpaceOnUse"><stop stop-color="#FFF478"/><stop offset=".475" stop-color="#FFB02E"/><stop offset="1" stop-color="#F70A8D"/></radialGradient><radialGradient id="c" cx="0" cy="0" r="1" gradientTransform="rotate(101.31 2.876 12.808)scale(17.8466 22.8581)" gradientUnits="userSpaceOnUse"><stop offset=".788" stop-color="#F59639" stop-opacity="0"/><stop offset=".973" stop-color="#FF7DCE"/></radialGradient><radialGradient id="d" cx="0" cy="0" r="1" gradientTransform="matrix(-29 29 -29 -29 18 14)" gradientUnits="userSpaceOnUse"><stop offset=".315" stop-opacity="0"/><stop offset="1"/></radialGradient><radialGradient id="e" cx="0" cy="0" r="1" gradientTransform="rotate(77.692 -2.555 18.434)scale(28.1469)" gradientUnits="userSpaceOnUse"><stop offset=".508" stop-color="#7D6133" stop-opacity="0"/><stop offset="1" stop-color="#715B32"/></radialGradient><radialGradient id="f" cx="0" cy="0" r="1" gradientTransform="rotate(55.713 -7.36 23.86)scale(13.3135 9.65032)" gradientUnits="userSpaceOnUse"><stop stop-color="#FFB849"/><stop offset="1" stop-color="#FFB847" stop-opacity="0"/></radialGradient><radialGradient id="g" cx="0" cy="0" r="1" gradientTransform="matrix(11.49998 2 -2 11.49998 20.5 18)" gradientUnits="userSpaceOnUse"><stop stop-color="#FFA64B"/><stop offset=".9" stop-color="#FFAE46" stop-opacity="0"/></radialGradient><radialGradient id="h" cx="0" cy="0" r="1" gradientTransform="rotate(43.971 -9.827 29.173)scale(59.0529)" gradientUnits="userSpaceOnUse"><stop offset=".185" stop-opacity="0"/><stop offset="1" stop-opacity=".4"/></radialGradient><radialGradient id="i" cx="0" cy="0" r="1" gradientTransform="matrix(0 3.3125 -4.82169 0 11.094 14.813)" gradientUnits="userSpaceOnUse"><stop offset=".337" stop-color="#4D274B"/><stop offset=".628" stop-color="#514047"/><stop offset="1" stop-color="#4E2553"/><stop offset="1" stop-color="#4A342F"/></radialGradient><radialGradient id="m" cx="0" cy="0" r="1" gradientTransform="matrix(0 -8.55556 17.1111 0 15.999 27.556)" gradientUnits="userSpaceOnUse"><stop stop-color="#F70A8D"/><stop offset="1" stop-color="#89029C"/></radialGradient><radialGradient id="n" cx="0" cy="0" r="1" gradientTransform="matrix(-.5 -9.5 16.51504 -.86922 16.5 30)" gradientUnits="userSpaceOnUse"><stop stop-color="#FF1C4A"/><stop offset=".766" stop-color="#FF2B8F"/><stop offset=".864" stop-color="#BB0773"/><stop offset=".886" stop-color="#9F0762"/></radialGradient><linearGradient id="j" x1="22.747" x2="21.063" y1="12" y2="15.284" gradientUnits="userSpaceOnUse"><stop stop-color="#553B3E"/><stop offset="1" stop-color="#3D2432"/></linearGradient><linearGradient id="k" x1="10.167" x2="10.167" y1="12.4" y2="10.6" gradientUnits="userSpaceOnUse"><stop offset=".03" stop-color="#524049"/><stop offset="1" stop-color="#4A2C42"/></linearGradient><linearGradient id="l" x1="25.167" x2="25.167" y1="10.4" y2="8.6" gradientUnits="userSpaceOnUse"><stop offset=".03" stop-color="#524049"/><stop offset="1" stop-color="#4A2C42"/></linearGradient><linearGradient id="p" x1="15.999" x2="15.999" y1="19" y2="20.43" gradientUnits="userSpaceOnUse"><stop stop-color="#ECCDFF"/><stop offset="1" stop-color="#fff"/></linearGradient><filter id="o" width="4.724" height="5.447" x="16.776" y="22.5" color-interpolation-filters="sRGB" filterUnits="userSpaceOnUse"><feFlood flood-opacity="0" result="BackgroundImageFix"/><feBlend in="SourceGraphic" in2="BackgroundImageFix" result="shape"/><feGaussianBlur result="effect1_foregroundBlur_31_25" stdDeviation=".5"/></filter></defs></svg>
